!!!COM: Bach, Johann Sebastian
!!!OTL: 276. Lobt Gott, ihr Christen, allzugleich
!!!ONM: No. 276
!!!OCL: Erk
!!!SCA: BWV 375
!!!YOE: Riemenschneider, Albert
!!!OPR: 371 Harmonized Chorales and 69 Chorale Melodies with Figured Bass
!!!OPT: Bach Chorale Harmonizations
**harm	**root	**kern	**kern	**kern	**kern
!	!	!bass	!tenor	!alto	!sprno
*Iorgan	*Iorgan	*Iorgan	*Iorgan	*Iorgan	*Iorgan
*k[]	*k[]	*k[]	*k[]	*k[]	*k[]
*C:	*C:	*C:	*C:	*C:	*C:
*met(c)	*met(c)	*met(c)	*met(c)	*met(c)	*met(c)
*M4/4	*M4/4	*M4/4	*M4/4	*M4/4	*M4/4
*MM60	*MM60	*MM60	*MM60	*MM60	*MM60
I	4GG	4c	4e	4g	4cc
=1	=1	=1	=1	=1	=1
Vb	4DD	4B	4d	8g	4gg
.	.	.	.	8a	.
V	4DD	4G	8d	4b	4gg
.	.	.	16e	.	.
.	.	.	16f	.	.
I	4GG	8c	8e	4cc	4gg
.	.	8d	8d	.	.
I	4GG	8e	4c	8cc	4gg
.	.	8c	.	8b-	.
=2	=2	=2	=2	=2	=2
IV	4CC	4f	4c	8a	4aa
.	.	.	.	8cc	.
V	4DD	4g	4g	4by	8gg
.	.	.	.	.	8ff
I;	4GG;	4c;	4g;	4cc;	4ee;
Vb	4DD	4B	4g	4dd	4dd
=3	=3	=3	=3	=3	=3
vi	4EE	4A	4c	4cc	8ee
.	.	.	.	.	8ff#
iii	4BB	8e	8g	4b	4gg
.	.	8d	8f#	.	.
vi7b	4EE	4c	8e	4a	4gg
.	.	.	8a	.	.
V/V	4AA	4d	8dd	4a	4ff#
.	.	.	8cc	.	.
=4	=4	=4	=4	=4	=4
V;	2.DD;	2.G;	2.b;	2.g;	2.gg;
V	4DD	4G	8g	4b	4gg
.	.	.	8f	.	.
=5	=5	=5	=5	=5	=5
I	4GG	8c	8e	4cc	4gg
.	.	8d	8f	.	.
iii	4BB	8e	8g	4b	4gg
.	.	8d	8f	.	.
I	2GG	4.c	8e	8cc	8gg
.	.	.	8f	8dd	8ff
.	.	.	4g	8ee	8ee
.	.	8d	.	8dd	8ff
=6	=6	=6	=6	=6	=6
!!linebreak: 2
Ib	4GG	4e	4g	4cc	8gg
.	.	.	.	.	8ff
IV7	4CC	4f	4a	8cc	4ee
.	.	.	.	16b	.
.	.	.	.	16a	.
V;	4DD;	4g;	4d;	4b;	4dd;
iii	4BB	4e	8e	4b	4gg
.	.	.	8d	.	.
=7	=7	=7	=7	=7	=7
IVb	4CC	[4A	8c	4cc	4ff
.	.	.	8d	.	.
vi	8EE	8A]	8e	8cc	4ee
iiib	8BB	8G	8g	8b	.
iib	4AA	8F	4a	4a	4dd
.	.	8D	.	.	.
V	4DD	8G	4g	4b	4dd
.	.	8f	.	.	.
=8	=8	=8	=8	=8	=8
Ib	4GG	4e	4g	4cc	8cc
.	.	.	.	.	8dd
viib	4FF#	4d	4f	4b	8ee
.	.	.	.	.	8ff
viioD7/ii;	4GG#;	4c#;	4e;	4b-;	4gg;
V7b/ii	4EE	4C#y	4e	4a	4gg
=9	=9	=9	=9	=9	=9
ii	4AA	4D	8f	8a	4ff
.	.	.	8g	8by	.
vi	4EE	8A	4a	8cc	4ee
.	.	8G	.	8b	.
iib	4AA	8F	8a	4a	4dd
.	.	8D	8f	.	.
V	4DD	4G	8d	4b	4dd
.	.	.	16e	.	.
.	.	.	16f	.	.
=10	=10	=10	=10	=10	=10
I;	2.GG;	2.C;	2.e;	2.g;	2.cc;
==	==	==	==	==	==
*-	*-	*-	*-	*-	*-
!!!CDT: 1685/3//-1750/7/28
!!!OCY: Deutschland
!!!AGN: chorale
!!!AST: Baroque
!!!AIN: vox
!!!YOY: 1941
!!!PPP: New York; London
!!!PPR: G. Schirmer
!!!ENC: David Huron
!!!EED: David Huron
!!!YEN: United States of America
!!!YER: 1992
!!!YEC: Copyright 1992 David Huron
!!!YEM: Rights to all derivative electronic formats reserved.
!!!YER: March 20, 1996
!!!AMT: simple quadruple
!!!EEV: 1.1
!!chor2scor: -l 2 -s 0.6 -o %b.pmx
